X: 1
T: Tripping to the Well - polka
R: polka
Z: 2009 John Chambers <jc:trillian.mit.edu>
S: printed MS of unknown origin
M: 2/4
L: 1/16
K: G
|: "G"G3A  B2G2 | "C"E2G2 "D7"E2D2 | "G"G3A  "Em"B2d2 | "Am"B2{cB}A2 "D7"A4  \
|  "G"G3A  B2G2 | "C"E2G2 "D7"E2D2 | "G"d2B2 "D7"DEGA |  "G"B2G2     G4 :|
|: "G"d2B2 G2FG | "G"B2G2 "D7"E2D2 | "G"d2B2 "Em"GFGA | "Am"B2A2 "D7"A4  \
|  "G"d2B2 G2FG | "G"B2G2 "D7"E2D2 | "G"d2B2 "D7"DEGA |  "G"B2G2     G4 :|
